icons/svg/percent.svg

﻿<?xml version="1.0" encoding="utf-8"?>
<!DOCTYPE svg PUBLIC "-//W3C//DTD SVG 1.1//EN" "http://www.w3.org/Graphics/SVG/1.1/DTD/svg11.dtd">
<svg xmlns="http://www.w3.org/2000/svg" xmlns:xlink="http://www.w3.org/1999/xlink" version="1.1" baseProfile="full" width="24" height="24" viewBox="0 0 24.00 24.00" enable-background="new 0 0 24.00 24.00" xml:space="preserve">
	<path fill="#000000" fill-opacity="1" stroke-linejoin="round" d="M 7,4C 8.65685,4 10,5.34315 10,7C 10,8.65686 8.65685,10 7,10C 5.34315,10 4,8.65686 4,7C 4,5.34315 5.34315,4 7,4 Z M 17,14C 18.6569,14 20,15.3431 20,17C 20,18.6569 18.6569,20 17,20C 15.3431,20 14,18.6569 14,17C 14,15.3431 15.3431,14 17,14 Z M 20,5.41422L 5.41421,20L 4,18.5858L 18.5858,4L 20,5.41422 Z "/>
</svg>

<svg xmlns="http://www.w3.org/2000/svg" version="1.1" baseProfile="full" width="24" height="24" viewBox="0 0 24.00 24.00" xml:space="preserve"><path fill="#000" fill-opacity="1" stroke-linejoin="round" d="M7 4c1.657 0 3 1.343 3 3s-1.343 3-3 3-3-1.343-3-3 1.343-3 3-3zm10 10c1.657 0 3 1.343 3 3s-1.343 3-3 3-3-1.343-3-3 1.343-3 3-3zm3-8.586L5.414 20 4 18.586 18.586 4 20 5.414z"/></svg>
